docs/icons/gitee.svg

<svg xmlns="http://www.w3.org/2000/svg" width="100" height="100" fill="none" xmlns:v="https://vecta.io/nano"><path fill-rule="evenodd" d="M72.6 44.8H47.1a2.22 2.22 0 0 0-2.2 2.2v5.5a2.22 2.22 0 0 0 2.2 2.2h15.5a2.22 2.22 0 0 1 2.2 2.2v.6.6c0 3.7-3 6.6-6.6 6.6h-21a2.22 2.22 0 0 1-2.2-2.2v-21c0-3.7 3-6.6 6.6-6.6h31a2.22 2.22 0 0 0 2.2-2.2v-5.5a2.22 2.22 0 0 0-2.2-2.2h-31A16.56 16.56 0 0 0 25 41.6v31a2.22 2.22 0 0 0 2.2 2.2h32.7a14.98 14.98 0 0 0 15-15V47c-.1-1.2-1.1-2.2-2.3-2.2z" fill="#fff"/></svg>

<svg width="100" height="100" viewBox="0 0 100 100" fill="none" xmlns="http://www.w3.org/2000/svg">
<path fill-rule="evenodd" clip-rule="evenodd" d="M72.6 44.8H47.1C45.9 44.8 44.9 45.8 44.9 47V52.5C44.9 53.7 45.9 54.7 47.1 54.7H62.6C63.8 54.7 64.8 55.7 64.8 56.9V57.5V58.1C64.8 61.8 61.8 64.7 58.2 64.7H37.2C36 64.7 35 63.7 35 62.5V41.5C35 37.8 38 34.9 41.6 34.9H72.6C73.8 34.9 74.8 33.9 74.8 32.7V27.2C74.8 26 73.8 25 72.6 25H41.6C32.4 25 25 32.4 25 41.6V72.6C25 73.8 26 74.8 27.2 74.8H59.9C68.2 74.8 74.9 68.1 74.9 59.8V47C74.8 45.8 73.8 44.8 72.6 44.8Z" fill="white"/>
</svg>
